X: 33486
T: Raggle Taggle Gypsies, The
R: polka
M: 2/4
K: Gmajor
ed|c2B2|A2ed|c2B2|A2e2|a2a2|b2a2|g2e2|e2f2|
g2g2|a2ef|gfed|c2AB|c2cd|eged|cABG|A2:|

